X:23
T:Gipsey’s Hornpipe. AJH.023
M:4/4
L:1/8
Q:1/2=90
S:A.J.Hughes MS
O:England
A:North Shropshire
Z:Neil Brookes
K:D
d2|Adcd Adcd|fdad bdad|Adcd Adcd|f2e2e2e2|!
Adcd Adcd|fdad bdad|Adcd Bbag|f2d2d2::!
f2|abag fgfe|dedc BAGF|FAdA FGAF|G2E2E2a2|!
abag fgfe|dedc BAGF|FAdc Bbag|f2d2d2:|

